icon/lg/xwiki.svg

<?xml version="1.0" encoding="UTF-8"?>
<svg viewBox="0 0 512 172" version="1.1" xmlns="http://www.w3.org/2000/svg" xmlns:xlink="http://www.w3.org/1999/xlink" preserveAspectRatio="xMidYMid" height="1em" width="1em">
  <g>
    <path d="M85.9825747,0 C89.1993269,0 91.8211841,2.54704892 91.9413912,5.73439191 L91.9456972,5.96312247 L91.9456972,32.6905712 C91.9456972,35.9839128 89.2759163,38.6536936 85.9825747,38.6536936 C82.7658224,38.6536936 80.1439653,36.1066447 80.0237582,32.9193017 L80.0194522,32.6905712 L80.0194522,5.96312247 C80.0194522,2.66978087 82.6892331,0 85.9825747,0 Z" fill="#70B700"/>
    <path d="M166.520559,79.5009198 C169.813901,79.5009198 172.483682,82.1707007 172.483682,85.4640423 C172.483682,88.6683747 169.956263,91.2823968 166.78618,91.4213547 L166.520559,91.4271648 L139.793111,91.4271648 C136.499769,91.4271648 133.829988,88.7573839 133.829988,85.4640423 C133.829988,82.2597099 136.357407,79.6456878 139.52749,79.5067299 L139.793111,79.5009198 L166.520559,79.5009198 Z" fill="#FF7700"/>
    <path d="M91.9456972,166.002027 C91.9456972,169.295368 89.2759163,171.965149 85.9825747,171.965149 C82.7782423,171.965149 80.1642202,169.437731 80.0252623,166.267648 L80.0194522,166.002027 L80.0194522,139.274578 C80.0194522,135.981237 82.6892331,133.311456 85.9825747,133.311456 C89.1869071,133.311456 91.8009292,135.838874 91.939887,139.008957 L91.9456972,139.274578 L91.9456972,166.002027 Z" fill="#FF0000"/>
    <path d="M5.96312247,91.4271648 C2.66978087,91.4271648 0,88.7573839 0,85.4640423 C0,82.2597099 2.52741856,79.6456878 5.69750163,79.5067299 L5.96312247,79.5009198 L32.6905712,79.5009198 C35.9839128,79.5009198 38.6536936,82.1707007 38.6536936,85.4640423 C38.6536936,88.6683747 36.1262751,91.2823968 32.956192,91.4213547 L32.6905712,91.4271648 L5.96312247,91.4271648 Z" fill="#0087CB"/>
    <path d="M151.141605,11.5227849 C155.373305,15.2262288 155.870695,21.6093105 152.317385,25.9194168 L152.11581,26.1567043 L99.757171,85.9820573 L152.11581,145.808445 C155.887836,150.118509 155.45167,156.670338 151.141605,160.442364 C146.909906,164.145808 140.517219,163.792694 136.71616,159.699411 L136.507686,159.46816 L85.976171,101.729057 L35.4460224,159.46816 C31.6739963,163.778224 25.1221674,164.214391 20.812103,160.442364 C16.5804035,156.738921 16.0830137,150.355839 19.6363231,146.045733 L19.8378986,145.808445 L72.195171,85.9820573 L19.8378986,26.1567043 C16.0658725,21.8466399 16.5020387,15.2948111 20.812103,11.5227849 C25.0438026,7.81934109 31.436489,8.17245552 35.2375489,12.2657388 L35.4460224,12.4969893 L85.976171,70.2350573 L136.507686,12.4969893 C140.279712,8.18692497 146.831541,7.75075879 151.141605,11.5227849 Z" fill="#505052"/>
    <path d="M333.939868,9.98655304 C337.794988,10.7279223 340.34691,14.3919296 339.740766,18.2404383 L339.697769,18.486312 L313.210388,156.220695 C311.824025,163.42978 301.889195,164.226254 299.31042,157.468956 L299.221475,157.22441 L258.403392,39.3084326 L217.587067,157.22441 C215.18569,164.161722 205.238919,163.531676 203.651275,156.475434 L203.598155,156.220695 L177.110773,18.486312 C176.35363,14.5491678 178.93153,10.7436961 182.868674,9.98655304 C186.723795,9.24518375 190.452672,11.7013451 191.317169,15.5001705 L191.368433,15.7444543 L212.735208,126.85433 L251.544189,14.7407392 C253.768656,8.31450089 262.765433,8.22881771 265.170495,14.4836897 L265.264354,14.7407392 L304.072614,126.85433 L325.440109,15.7444543 C326.197252,11.8073101 330.002724,9.22940994 333.939868,9.98655304 Z M361.705059,9.64591019 C365.630817,9.64591019 368.828759,12.7620652 368.960302,16.6557943 L368.964512,16.9053636 L368.964512,154.639747 C368.964512,158.649032 365.714344,161.8992 361.705059,161.8992 C357.7793,161.8992 354.581358,158.783045 354.449815,154.889316 L354.445605,154.639747 L354.445605,16.9053636 C354.445605,12.8960782 357.695773,9.64591019 361.705059,9.64591019 Z M396.138654,9.64591019 C400.064413,9.64591019 403.262355,12.7620652 403.393898,16.6557943 L403.398108,16.9053636 L403.398108,78.8409463 L470.46759,11.7721549 C473.302583,8.93716197 477.899014,8.93716197 480.734007,11.7721549 C483.504568,14.5427161 483.567536,18.9955606 480.922909,21.8425893 L480.734007,22.0385724 L416.999635,85.7730829 L480.734007,149.506538 C483.504568,152.277099 483.567536,156.729944 480.922909,159.576972 L480.734007,159.772956 C477.963446,162.543517 473.510601,162.606484 470.663573,159.961857 L470.46759,159.772956 L403.398108,92.7033911 L403.398108,154.639747 C403.398108,158.649032 400.14794,161.8992 396.138654,161.8992 C392.212896,161.8992 389.014954,158.783045 388.88341,154.889316 L388.879201,154.639747 L388.879201,16.9053636 C388.879201,12.8960782 392.129369,9.64591019 396.138654,9.64591019 Z M504.736918,9.64591019 C508.662677,9.64591019 511.860618,12.7620652 511.992162,16.6557943 L511.996371,16.9053636 L511.996371,154.639747 C511.996371,158.649032 508.746203,161.8992 504.736918,161.8992 C500.811159,161.8992 497.613218,158.783045 497.481674,154.889316 L497.477464,154.639747 L497.477464,16.9053636 C497.477464,12.8960782 500.727632,9.64591019 504.736918,9.64591019 Z" fill="#FF7700"/>
  </g>
</svg>

<svg width="512" height="172" xmlns="http://www.w3.org/2000/svg" preserveAspectRatio="xMidYMid"><path d="M85.983 0a5.963 5.963 0 0 1 5.958 5.734l.005.23V32.69a5.963 5.963 0 0 1-11.922.228l-.005-.228V5.963A5.963 5.963 0 0 1 85.983 0Z" fill="#70B700"/><path d="M166.52 79.5a5.963 5.963 0 0 1 .266 11.921l-.265.006h-26.728a5.963 5.963 0 0 1-.266-11.92l.266-.006h26.728Z" fill="#F70"/><path d="M91.946 166.002a5.963 5.963 0 0 1-11.92.266l-.007-.266v-26.727a5.963 5.963 0 0 1 11.92-.266l.007.266v26.727Z" fill="red"/><path d="M5.963 91.427a5.963 5.963 0 0 1-.265-11.92l.265-.006h26.728a5.963 5.963 0 0 1 .265 11.92l-.265.006H5.963Z" fill="#0087CB"/><path d="M151.142 11.523c4.231 3.703 4.729 10.086 1.175 14.396l-.201.238-52.359 59.825 52.359 59.826c3.772 4.31 3.336 10.862-.974 14.634-4.232 3.704-10.625 3.35-14.426-.743l-.208-.23-50.532-57.74-50.53 57.74c-3.772 4.31-10.324 4.745-14.634.973-4.232-3.703-4.729-10.086-1.176-14.396l.202-.238 52.357-59.826-52.357-59.825c-3.772-4.31-3.336-10.862.974-14.634 4.232-3.704 10.624-3.35 14.426.743l.208.231 50.53 57.738 50.532-57.738c3.772-4.31 10.324-4.746 14.634-.974Z" fill="#505052"/><path d="M333.94 9.987a7.26 7.26 0 0 1 5.8 8.253l-.042.246-26.488 137.735c-1.386 7.209-11.32 8.005-13.9 1.248l-.089-.245-40.818-117.916-40.816 117.916c-2.401 6.938-12.348 6.308-13.936-.749l-.053-.254-26.487-137.735a7.26 7.26 0 0 1 14.206-2.986l.051.244 21.367 111.11 38.81-112.113c2.224-6.426 11.22-6.512 13.625-.257l.094.257 38.809 112.113 21.367-111.11a7.26 7.26 0 0 1 8.5-5.757Zm27.765-.341a7.26 7.26 0 0 1 7.255 7.01l.005.25V154.64a7.26 7.26 0 0 1-14.515.25l-.004-.25V16.905a7.26 7.26 0 0 1 7.26-7.26Zm34.434 0a7.26 7.26 0 0 1 7.255 7.01l.004.25V78.84l67.07-67.069a7.26 7.26 0 0 1 10.455 10.07l-.189.197L417 85.773l63.734 63.734a7.26 7.26 0 0 1 .189 10.07l-.189.196a7.26 7.26 0 0 1-10.07.189l-.196-.189-67.07-67.07v61.937a7.26 7.26 0 0 1-14.515.25l-.004-.25V16.905a7.26 7.26 0 0 1 7.26-7.26Zm108.598 0a7.26 7.26 0 0 1 7.255 7.01l.004.25V154.64a7.26 7.26 0 0 1-14.514.25l-.005-.25V16.905a7.26 7.26 0 0 1 7.26-7.26Z" fill="#F70"/></svg>
